static/img/kroki/2858a373ddaa043bf1d18e662289407b.svg

<?xml version="1.0" encoding="us-ascii" standalone="no"?><svg xmlns="http://www.w3.org/2000/svg" xmlns:xlink="http://www.w3.org/1999/xlink" contentStyleType="text/css" height="352px" preserveAspectRatio="none" style="width:686px;height:352px;" version="1.1" viewBox="0 0 686 352" width="686px" zoomAndPan="magnify"><defs/><g><!--class azure_machine_learning_compute--><g id="elem_azure_machine_learning_compute"><rect codeLine="23" fill="#3D176E" height="39.7891" id="azure_machine_learning_compute" rx="2.5" ry="2.5" style="stroke:#000D19;stroke-width:0.5;" width="329" x="278.69" y="106.79"/><ellipse cx="293.69" cy="126.6845" fill="#ADD1B2" rx="11" ry="11" style="stroke:#181818;stroke-width:1.0;"/><path d="M296.6588,132.3252 Q296.0806,132.622 295.44,132.7627 Q294.7994,132.9189 294.0963,132.9189 Q291.5963,132.9189 290.2681,131.2783 Q288.9556,129.622 288.9556,126.497 Q288.9556,123.372 290.2681,121.7158 Q291.5963,120.0595 294.0963,120.0595 Q294.7994,120.0595 295.44,120.2158 Q296.0963,120.372 296.6588,120.6689 L296.6588,123.3877 Q296.0338,122.8095 295.44,122.5439 Q294.8463,122.2627 294.2213,122.2627 Q292.8775,122.2627 292.19,123.3408 Q291.5025,124.4033 291.5025,126.497 Q291.5025,128.5908 292.19,129.6689 Q292.8775,130.7314 294.2213,130.7314 Q294.8463,130.7314 295.44,130.4658 Q296.0338,130.1845 296.6588,129.6064 L296.6588,132.3252 Z " fill="#000000"/><text fill="#D9B8FF" font-family="Helvetica" font-size="17" lengthAdjust="spacing" textLength="287" x="312.69" y="132.5698">azure_machine_learning_compute</text></g><!--class azure_machine_learning_online_endpoint--><g id="elem_azure_machine_learning_online_endpoint"><rect codeLine="26" fill="#3D176E" height="39.7891" id="azure_machine_learning_online_endpoint" rx="2.5" ry="2.5" style="stroke:#000D19;stroke-width:0.5;" width="391" x="52.69" y="206.58"/><ellipse cx="67.69" cy="226.4745" fill="#ADD1B2" rx="11" ry="11" style="stroke:#181818;stroke-width:1.0;"/><path d="M70.6588,232.1152 Q70.0806,232.412 69.44,232.5527 Q68.7994,232.7089 68.0963,232.7089 Q65.5963,232.7089 64.2681,231.0683 Q62.9556,229.412 62.9556,226.287 Q62.9556,223.162 64.2681,221.5058 Q65.5963,219.8495 68.0963,219.8495 Q68.7994,219.8495 69.44,220.0058 Q70.0963,220.162 70.6588,220.4589 L70.6588,223.1777 Q70.0338,222.5995 69.44,222.3339 Q68.8463,222.0527 68.2213,222.0527 Q66.8775,222.0527 66.19,223.1308 Q65.5025,224.1933 65.5025,226.287 Q65.5025,228.3808 66.19,229.4589 Q66.8775,230.5214 68.2213,230.5214 Q68.8463,230.5214 69.44,230.2558 Q70.0338,229.9745 70.6588,229.3964 L70.6588,232.1152 Z " fill="#000000"/><text fill="#D9B8FF" font-family="Helvetica" font-size="17" lengthAdjust="spacing" textLength="349" x="86.69" y="232.3598">azure_machine_learning_online_endpoint</text></g><!--class azure_machine_learning_workspace--><g id="elem_azure_machine_learning_workspace"><rect codeLine="29" fill="#3D176E" height="39.7891" id="azure_machine_learning_workspace" rx="2.5" ry="2.5" style="stroke:#000D19;stroke-width:0.5;" width="344" x="162.19" y="7"/><ellipse cx="177.19" cy="26.8945" fill="#ADD1B2" rx="11" ry="11" style="stroke:#181818;stroke-width:1.0;"/><path d="M180.1588,32.5352 Q179.5806,32.832 178.94,32.9727 Q178.2994,33.1289 177.5963,33.1289 Q175.0963,33.1289 173.7681,31.4883 Q172.4556,29.832 172.4556,26.707 Q172.4556,23.582 173.7681,21.9258 Q175.0963,20.2695 177.5963,20.2695 Q178.2994,20.2695 178.94,20.4258 Q179.5963,20.582 180.1588,20.8789 L180.1588,23.5977 Q179.5338,23.0195 178.94,22.7539 Q178.3463,22.4727 177.7213,22.4727 Q176.3775,22.4727 175.69,23.5508 Q175.0025,24.6133 175.0025,26.707 Q175.0025,28.8008 175.69,29.8789 Q176.3775,30.9414 177.7213,30.9414 Q178.3463,30.9414 178.94,30.6758 Q179.5338,30.3945 180.1588,29.8164 L180.1588,32.5352 Z " fill="#000000"/><text fill="#D9B8FF" font-family="Helvetica" font-size="17" lengthAdjust="spacing" textLength="302" x="196.19" y="32.7798">azure_machine_learning_workspace</text></g><!--class microsoft_graph_service_principal--><g id="elem_microsoft_graph_service_principal"><rect codeLine="32" fill="#3D176E" height="39.7891" id="microsoft_graph_service_principal" rx="2.5" ry="2.5" style="stroke:#000D19;stroke-width:0.5;" width="324" x="86.19" y="306.37"/><ellipse cx="101.19" cy="326.2645" fill="#ADD1B2" rx="11" ry="11" style="stroke:#181818;stroke-width:1.0;"/><path d="M104.1588,331.9052 Q103.5806,332.202 102.94,332.3427 Q102.2994,332.4989 101.5963,332.4989 Q99.0963,332.4989 97.7681,330.8583 Q96.4556,329.202 96.4556,326.077 Q96.4556,322.952 97.7681,321.2958 Q99.0963,319.6395 101.5963,319.6395 Q102.2994,319.6395 102.94,319.7958 Q103.5963,319.952 104.1588,320.2489 L104.1588,322.9677 Q103.5338,322.3895 102.94,322.1239 Q102.3463,321.8427 101.7213,321.8427 Q100.3775,321.8427 99.69,322.9208 Q99.0025,323.9833 99.0025,326.077 Q99.0025,328.1708 99.69,329.2489 Q100.3775,330.3114 101.7213,330.3114 Q102.3463,330.3114 102.94,330.0458 Q103.5338,329.7645 104.1588,329.1864 L104.1588,331.9052 Z " fill="#000000"/><text fill="#D9B8FF" font-family="Helvetica" font-size="17" lengthAdjust="spacing" textLength="282" x="120.19" y="332.1498">microsoft_graph_service_principal</text></g><!--class microsoft_graph_user--><g id="elem_microsoft_graph_user"><rect codeLine="35" fill="#3D176E" height="39.7891" id="microsoft_graph_user" rx="2.5" ry="2.5" style="stroke:#000D19;stroke-width:0.5;" width="222" x="457.19" y="306.37"/><ellipse cx="472.19" cy="326.2645" fill="#ADD1B2" rx="11" ry="11" style="stroke:#181818;stroke-width:1.0;"/><path d="M475.1588,331.9052 Q474.5806,332.202 473.94,332.3427 Q473.2994,332.4989 472.5963,332.4989 Q470.0963,332.4989 468.7681,330.8583 Q467.4556,329.202 467.4556,326.077 Q467.4556,322.952 468.7681,321.2958 Q470.0963,319.6395 472.5963,319.6395 Q473.2994,319.6395 473.94,319.7958 Q474.5963,319.952 475.1588,320.2489 L475.1588,322.9677 Q474.5338,322.3895 473.94,322.1239 Q473.3463,321.8427 472.7213,321.8427 Q471.3775,321.8427 470.69,322.9208 Q470.0025,323.9833 470.0025,326.077 Q470.0025,328.1708 470.69,329.2489 Q471.3775,330.3114 472.7213,330.3114 Q473.3463,330.3114 473.94,330.0458 Q474.5338,329.7645 475.1588,329.1864 L475.1588,331.9052 Z " fill="#000000"/><text fill="#D9B8FF" font-family="Helvetica" font-size="17" lengthAdjust="spacing" textLength="180" x="491.19" y="332.1498">microsoft_graph_user</text></g><!--link azure_machine_learning_compute to azure_machine_learning_online_endpoint--><g id="link_azure_machine_learning_compute_azure_machine_learning_online_endpoint"><path codeLine="38" d="M404.66,147.01 C370.48,164.15 326.1628,186.3692 292.0028,203.5092 " fill="none" id="azure_machine_learning_compute-to-azure_machine_learning_online_endpoint" style="stroke:#1A83AF;stroke-width:2.0;"/><polygon fill="#1A83AF" points="286.64,206.2,296.4781,205.739,291.109,203.9577,292.8903,198.5886,286.64,206.2" style="stroke:#1A83AF;stroke-width:2.0;"/></g><!--link azure_machine_learning_compute to microsoft_graph_service_principal--><g id="link_azure_machine_learning_compute_microsoft_graph_service_principal"><path codeLine="39" d="M453.71,146.82 C465.96,171.97 482.02,216.44 461.19,246.37 C440.69,275.82 413.526,292.3649 379.706,303.9549 " fill="none" id="azure_machine_learning_compute-to-microsoft_graph_service_principal" style="stroke:#1A83AF;stroke-width:2.0;"/><polygon fill="#1A83AF" points="374.03,305.9,383.8407,306.7663,378.76,304.2791,381.2472,299.1983,374.03,305.9" style="stroke:#1A83AF;stroke-width:2.0;"/></g><!--link azure_machine_learning_compute to microsoft_graph_user--><g id="link_azure_machine_learning_compute_microsoft_graph_user"><path codeLine="40" d="M467.66,146.88 C485.11,161.64 508.07,183.37 523.19,206.58 C544,238.52 555.7135,275.6948 562.1135,300.1948 " fill="none" id="azure_machine_learning_compute-to-microsoft_graph_user" style="stroke:#1A83AF;stroke-width:2.0;"/><polygon fill="#1A83AF" points="563.63,306,565.2254,296.2812,562.3663,301.1623,557.4852,298.3032,563.63,306" style="stroke:#1A83AF;stroke-width:2.0;"/></g><!--link azure_machine_learning_online_endpoint to microsoft_graph_service_principal--><g id="link_azure_machine_learning_online_endpoint_microsoft_graph_service_principal"><path codeLine="41" d="M248.19,246.8 C248.19,263.94 248.19,282.85 248.19,299.99 " fill="none" id="azure_machine_learning_online_endpoint-to-microsoft_graph_service_principal" style="stroke:#1A83AF;stroke-width:2.0;"/><polygon fill="#1A83AF" points="248.19,305.99,252.19,296.99,248.19,300.99,244.19,296.99,248.19,305.99" style="stroke:#1A83AF;stroke-width:2.0;"/></g><!--link azure_machine_learning_online_endpoint to microsoft_graph_user--><g id="link_azure_machine_learning_online_endpoint_microsoft_graph_user"><path codeLine="42" d="M311.41,246.8 C367.42,263.91 443.0319,287.0166 499.0919,304.1466 " fill="none" id="azure_machine_learning_online_endpoint-to-microsoft_graph_user" style="stroke:#1A83AF;stroke-width:2.0;"/><polygon fill="#1A83AF" points="504.83,305.9,497.3918,299.4446,500.0483,304.4389,495.054,307.0954,504.83,305.9" style="stroke:#1A83AF;stroke-width:2.0;"/></g><!--link azure_machine_learning_workspace to azure_machine_learning_compute--><g id="link_azure_machine_learning_workspace_azure_machine_learning_compute"><path codeLine="43" d="M355.73,47.22 C374.83,64.36 398.1333,85.274 417.2333,102.404 " fill="none" id="azure_machine_learning_workspace-to-azure_machine_learning_compute" style="stroke:#1A83AF;stroke-width:2.0;"/><polygon fill="#1A83AF" points="421.7,106.41,417.6706,97.4231,417.9777,103.0716,412.3292,103.3788,421.7,106.41" style="stroke:#1A83AF;stroke-width:2.0;"/></g><!--link azure_machine_learning_workspace to azure_machine_learning_online_endpoint--><g id="link_azure_machine_learning_workspace_azure_machine_learning_online_endpoint"><path codeLine="44" d="M309.48,47.17 C292.85,61.66 272.03,83.02 261.19,106.79 C246.31,139.42 245.3384,176.1561 246.4384,200.4361 " fill="none" id="azure_machine_learning_workspace-to-azure_machine_learning_online_endpoint" style="stroke:#1A83AF;stroke-width:2.0;"/><polygon fill="#1A83AF" points="246.71,206.43,250.2986,197.2582,246.4837,201.4351,242.3068,197.6203,246.71,206.43" style="stroke:#1A83AF;stroke-width:2.0;"/></g><!--link azure_machine_learning_workspace to microsoft_graph_service_principal--><g id="link_azure_machine_learning_workspace_microsoft_graph_service_principal"><path codeLine="45" d="M264.73,47.23 C192.74,71.4 84.06,120.45 35.19,206.58 C6,258.04 66.3438,287.1674 132.4438,304.3874 " fill="none" id="azure_machine_learning_workspace-to-microsoft_graph_service_principal" style="stroke:#1A83AF;stroke-width:2.0;"/><polygon fill="#1A83AF" points="138.25,305.9,130.5491,299.7603,133.4115,304.6395,128.5323,307.5019,138.25,305.9" style="stroke:#1A83AF;stroke-width:2.0;"/></g><!--link azure_machine_learning_workspace to microsoft_graph_user--><g id="link_azure_machine_learning_workspace_microsoft_graph_user"><path codeLine="46" d="M463.63,47.24 C531.52,60.31 604.76,80.08 625.19,106.79 C672.23,168.28 616.2767,260.0686 586.6467,301.0286 " fill="none" id="azure_machine_learning_workspace-to-microsoft_graph_user" style="stroke:#1A83AF;stroke-width:2.0;"/><polygon fill="#1A83AF" points="583.13,305.89,591.6459,300.9424,586.0606,301.8388,585.1641,296.2535,583.13,305.89" style="stroke:#1A83AF;stroke-width:2.0;"/></g><!--SRC=[hP9HJy8m58NVzokQy4p290gyc4mIeY_4Y6_6BAMzPStMThdj863yxsw0EZRPXlhOtg_dddDl8yc1W4hTbYXGIq3hsLZgb29L940qcwb939AU45GCHzNYp6ZN2iof0d8FoHgSPBHAF4UInHgi9LUbqXrbyGfDflb1tY7LDY-1TYLgcb1h0-TGBZC79JDyiXmBKIMhehqXzqStKCCCSi0ZCXWCk3-f8gsj6dD_4Gkv0-ANXpOt3cesQotsLAFBWYYPh0Nzh9_r-4Wvbtf5hajtJmTFg05FxXSHvMPJq88cjjp6Ea0mRfl2j9OA9cCkHZ_23-TWZnMZ8tIN8OIAiaXg21EWgFFk8JCgpVy1UVEyzsRIwAGuW-QfaTfrUB4n6ESVa9seAydGM2DSk4AQHg45N4i6OOfICvdIf0dESlfGRudJV-dvmNWOp5xxjnq3NIJPck9FQaLCh-CQ_iVMHQfDzhvttcK5nsdyZrZ7VPuH_VNeEkhjX_O1]--></g></svg>

<svg xmlns="http://www.w3.org/2000/svg" width="686" height="352" viewBox="0 0 686 352"><rect width="329" height="39.789" x="278.69" y="106.79" fill="#3D176E" rx="2.5" ry="2.5" style="stroke:#000d19;stroke-width:.5"/><circle cx="293.69" cy="126.684" r="11" fill="#ADD1B2" style="stroke:#181818;stroke-width:1"/><path d="M296.659 132.325q-.578.297-1.219.438-.64.156-1.344.156-2.5 0-3.828-1.64-1.312-1.657-1.312-4.782t1.312-4.781q1.328-1.656 3.828-1.656.703 0 1.344.156.656.156 1.219.453v2.719q-.625-.579-1.219-.844-.594-.281-1.219-.281-1.344 0-2.031 1.078-.687 1.062-.687 3.156t.687 3.172q.688 1.062 2.031 1.062.625 0 1.219-.265.594-.281 1.219-.86z"/><text x="312.69" y="132.57" fill="#D9B8FF" font-family="Helvetica" font-size="17" textLength="287">azure_machine_learning_compute</text><rect width="391" height="39.789" x="52.69" y="206.58" fill="#3D176E" rx="2.5" ry="2.5" style="stroke:#000d19;stroke-width:.5"/><circle cx="67.69" cy="226.475" r="11" fill="#ADD1B2" style="stroke:#181818;stroke-width:1"/><path d="M70.659 232.115q-.578.297-1.219.438-.64.156-1.344.156-2.5 0-3.828-1.64-1.312-1.657-1.312-4.782t1.312-4.781q1.328-1.656 3.828-1.656.703 0 1.344.156.656.156 1.219.453v2.719q-.625-.578-1.219-.844-.594-.281-1.219-.281-1.344 0-2.031 1.078-.687 1.062-.687 3.156t.687 3.172q.688 1.062 2.031 1.062.625 0 1.219-.265.594-.281 1.219-.86z"/><text x="86.69" y="232.36" fill="#D9B8FF" font-family="Helvetica" font-size="17" textLength="349">azure_machine_learning_online_endpoint</text><rect width="344" height="39.789" x="162.19" y="7" fill="#3D176E" rx="2.5" ry="2.5" style="stroke:#000d19;stroke-width:.5"/><circle cx="177.19" cy="26.895" r="11" fill="#ADD1B2" style="stroke:#181818;stroke-width:1"/><path d="M180.159 32.535q-.578.297-1.219.438-.64.156-1.344.156-2.5 0-3.828-1.64-1.312-1.657-1.312-4.782t1.312-4.781q1.328-1.656 3.828-1.656.703 0 1.344.156.656.156 1.219.453v2.719q-.625-.578-1.219-.844-.594-.281-1.219-.281-1.344 0-2.031 1.078-.687 1.062-.687 3.156t.687 3.172q.688 1.062 2.031 1.062.625 0 1.219-.265.594-.281 1.219-.86z"/><text x="196.19" y="32.78" fill="#D9B8FF" font-family="Helvetica" font-size="17" textLength="302">azure_machine_learning_workspace</text><rect width="324" height="39.789" x="86.19" y="306.37" fill="#3D176E" rx="2.5" ry="2.5" style="stroke:#000d19;stroke-width:.5"/><circle cx="101.19" cy="326.264" r="11" fill="#ADD1B2" style="stroke:#181818;stroke-width:1"/><path d="M104.159 331.905q-.578.297-1.219.438-.64.156-1.344.156-2.5 0-3.828-1.64-1.312-1.657-1.312-4.782t1.312-4.781q1.328-1.656 3.828-1.656.703 0 1.344.156.656.156 1.219.453v2.719q-.625-.579-1.219-.844-.594-.281-1.219-.281-1.344 0-2.031 1.078-.687 1.062-.687 3.156t.687 3.172q.688 1.062 2.031 1.062.625 0 1.219-.265.594-.281 1.219-.86z"/><text x="120.19" y="332.15" fill="#D9B8FF" font-family="Helvetica" font-size="17" textLength="282">microsoft_graph_service_principal</text><rect width="222" height="39.789" x="457.19" y="306.37" fill="#3D176E" rx="2.5" ry="2.5" style="stroke:#000d19;stroke-width:.5"/><circle cx="472.19" cy="326.264" r="11" fill="#ADD1B2" style="stroke:#181818;stroke-width:1"/><path d="M475.159 331.905q-.578.297-1.219.438-.64.156-1.344.156-2.5 0-3.828-1.64-1.312-1.657-1.312-4.782t1.312-4.781q1.328-1.656 3.828-1.656.703 0 1.344.156.656.156 1.219.453v2.719q-.625-.579-1.219-.844-.594-.281-1.219-.281-1.344 0-2.031 1.078-.687 1.062-.687 3.156t.687 3.172q.688 1.062 2.031 1.062.625 0 1.219-.265.594-.281 1.219-.86z"/><text x="491.19" y="332.15" fill="#D9B8FF" font-family="Helvetica" font-size="17" textLength="180">microsoft_graph_user</text><path fill="none" d="M404.66 147.01c-34.18 17.14-78.497 39.36-112.657 56.5" style="stroke:#1a83af;stroke-width:2"/><path fill="#1A83AF" d="m286.64 206.2 9.838-.461-5.369-1.781 1.781-5.37z" style="stroke:#1a83af;stroke-width:2"/><path fill="none" d="M453.71 146.82c12.25 25.15 28.31 69.62 7.48 99.55-20.5 29.45-47.664 45.995-81.484 57.585" style="stroke:#1a83af;stroke-width:2"/><path fill="#1A83AF" d="m374.03 305.9 9.81.866-5.08-2.487 2.487-5.08z" style="stroke:#1a83af;stroke-width:2"/><path fill="none" d="M467.66 146.88c17.45 14.76 40.41 36.49 55.53 59.7 20.81 31.94 32.523 69.115 38.923 93.615" style="stroke:#1a83af;stroke-width:2"/><path fill="#1A83AF" d="m563.63 306 1.595-9.719-2.859 4.881-4.88-2.859z" style="stroke:#1a83af;stroke-width:2"/><path fill="none" d="M248.19 246.8v53.19" style="stroke:#1a83af;stroke-width:2"/><path fill="#1A83AF" d="m248.19 305.99 4-9-4 4-4-4z" style="stroke:#1a83af;stroke-width:2"/><path fill="none" d="M311.41 246.8c56.01 17.11 131.622 40.217 187.682 57.347" style="stroke:#1a83af;stroke-width:2"/><path fill="#1A83AF" d="m504.83 305.9-7.438-6.455 2.656 4.994-4.994 2.656z" style="stroke:#1a83af;stroke-width:2"/><path fill="none" d="M355.73 47.22c19.1 17.14 42.403 38.054 61.503 55.184" style="stroke:#1a83af;stroke-width:2"/><path fill="#1A83AF" d="m421.7 106.41-4.03-8.987.308 5.649-5.649.307z" style="stroke:#1a83af;stroke-width:2"/><path fill="none" d="M309.48 47.17c-16.63 14.49-37.45 35.85-48.29 59.62-14.88 32.63-15.852 69.366-14.752 93.646" style="stroke:#1a83af;stroke-width:2"/><path fill="#1A83AF" d="m246.71 206.43 3.589-9.172-3.815 4.177-4.177-3.815z" style="stroke:#1a83af;stroke-width:2"/><path fill="none" d="M264.73 47.23C192.74 71.4 84.06 120.45 35.19 206.58 6 258.04 66.344 287.167 132.444 304.387" style="stroke:#1a83af;stroke-width:2"/><path fill="#1A83AF" d="m138.25 305.9-7.7-6.14 2.861 4.88-4.879 2.862z" style="stroke:#1a83af;stroke-width:2"/><path fill="none" d="M463.63 47.24c67.89 13.07 141.13 32.84 161.56 59.55 47.04 61.49-8.913 153.279-38.543 194.239" style="stroke:#1a83af;stroke-width:2"/><path fill="#1A83AF" d="m583.13 305.89 8.516-4.948-5.585.897-.897-5.586z" style="stroke:#1a83af;stroke-width:2"/></svg>
